X:14
T:Hedigan's Fancy
Z: id:dc-slipjig-14
M:9/8
L:1/8
K:D Major
d2A BGE AFD|fed AFD GFE|d2A BGE AFD|BAB E2F GFE:|!
DdA FDF GEA|DdA FDF GFE|DdA FDF GEA|BAB E2F GFE:|!
dcd fed ecA|def agf gfe|dcd fed ecA|dAG FED GFE:|!
def agf agf|def agf gfe|def agf agf|bgf e2f gfe:|!
dfe dAF GFE|dfe dAF BGE|dfe dAF GFE|BAB E2F GFE:|!
DFA fed FGE|DFA dAF E2A|DFA fed FED|BAB E2F GFE:|!

